svg/black/stq.svg

<svg height="32" viewBox="0 0 32 32" width="32" xmlns="http://www.w3.org/2000/svg"><g fill="none"><circle cx="16" cy="16" fill="#000" r="16"/><path d="m.15476191.03571429c1.07142857 0 2.17857142-.07142858 3.24999999.02380952.47619048.53571429.58333334 1.28571429.95238096 1.9047619 4.80952381.02380953 9.64285714 0 14.45238094 0 .3571429.02380953.7976191.03571429.9761905.39285715.2142857.39285714.0595238.85714285-.1428572 1.21428571-.9761904 1.65476191-1.9047619 3.33333333-2.8571428 5-.3571429.5952381-.5952381 1.26190476-1.1309524 1.72619043-.4404762.3690477-1.047619.3928572-1.6071429.3928572h-6.66666662c-.35714286 0-.73809524-.0357143-.95238095-.3214286-.69047619-.7738095-1.05952381-1.76190474-1.51190476-2.66666665-.78571429-1.57142857-1.54761905-3.14285714-2.29761905-4.72619047-.15476191-.35714286-.3452381-.67857143-.52380952-1.01190477-.63095239 0-1.26190477 0-1.88095239-.02380952-.11904761-.63095238-.11904761-1.27380952-.0595238-1.9047619zm7.51190476 11.94047621c.47619047-.1190476.98809523-.1190476 1.47619047-.0238095.54761905.1190476 1.02380956.5357142 1.15476186 1.0833333.1428572.6309524.1428572 1.3095238-.1071428 1.9166667-.23809525.547619-.83333334.8095238-1.39285715.8571428-.64285715.0476191-1.38095238 0-1.85714286-.4761905-.51190476-.5714285-.51190476-1.4047619-.4047619-2.1190476.07142857-.5952381.54761904-1.1071428 1.13095238-1.2380952zm5.95238093 0c.5952381-.1309524 1.2380953-.1190476 1.8095238.0952381.5476191.2261904.8333334.8214285.8809524 1.3809524.0714286.6547619 0 1.4047619-.4761905 1.9047619-.4404762.4166666-1.0833333.4761904-1.6666666.4642857-.5714286-.0238096-1.1904762-.2380953-1.4880953-.7738096-.2857143-.5833333-.3571428-1.2380952-.2142857-1.8690476.1190476-.5833333.5714286-1.0714285 1.1547619-1.2023809z" fill="#fff" transform="translate(5 9)"/></g></svg>

<?xml version="1.0" encoding="UTF-8"?>
<svg width="32px" height="32px" viewBox="0 0 32 32" version="1.1" xmlns="http://www.w3.org/2000/svg" xmlns:xlink="http://www.w3.org/1999/xlink">
    <!-- Generator: Sketch 50 (54983) - http://www.bohemiancoding.com/sketch -->
    <title>black/stq</title>
    <desc>Created with Sketch.</desc>
    <defs></defs>
    <g id="black/stq" stroke="none" stroke-width="1" fill="none" fill-rule="evenodd">
        <circle id="Combined-Shape" fill="#000000" fill-rule="nonzero" cx="16" cy="16" r="16"></circle>
        <g id="Storiqa-(STQ)" transform="translate(5.000000, 9.000000)" fill="#FFFFFF" fill-rule="nonzero">
            <path d="M0.154761905,0.0357142857 C1.22619048,0.0357142857 2.33333333,-0.0357142857 3.4047619,0.0595238095 C3.88095238,0.595238095 3.98809524,1.3452381 4.35714286,1.96428571 C9.16666667,1.98809524 14,1.96428571 18.8095238,1.96428571 C19.1666667,1.98809524 19.6071429,2 19.7857143,2.35714286 C20,2.75 19.8452381,3.21428571 19.6428571,3.57142857 C18.6666667,5.22619048 17.7380952,6.9047619 16.7857143,8.57142857 C16.4285714,9.16666667 16.1904762,9.83333333 15.6547619,10.297619 C15.2142857,10.6666667 14.6071429,10.6904762 14.047619,10.6904762 L7.38095238,10.6904762 C7.02380952,10.6904762 6.64285714,10.6547619 6.42857143,10.3690476 C5.73809524,9.5952381 5.36904762,8.60714286 4.91666667,7.70238095 C4.13095238,6.13095238 3.36904762,4.55952381 2.61904762,2.97619048 C2.46428571,2.61904762 2.27380952,2.29761905 2.0952381,1.96428571 C1.46428571,1.96428571 0.833333333,1.96428571 0.214285714,1.94047619 C0.0952380952,1.30952381 0.0952380952,0.666666667 0.154761905,0.0357142857 Z M7.66666667,11.9761905 C8.14285714,11.8571429 8.6547619,11.8571429 9.14285714,11.952381 C9.69047619,12.0714286 10.1666667,12.4880952 10.297619,13.0357143 C10.4404762,13.6666667 10.4404762,14.3452381 10.1904762,14.952381 C9.95238095,15.5 9.35714286,15.7619048 8.79761905,15.8095238 C8.1547619,15.8571429 7.41666667,15.8095238 6.94047619,15.3333333 C6.42857143,14.7619048 6.42857143,13.9285714 6.53571429,13.2142857 C6.60714286,12.6190476 7.08333333,12.1071429 7.66666667,11.9761905 Z M13.6190476,11.9761905 C14.2142857,11.8452381 14.8571429,11.8571429 15.4285714,12.0714286 C15.9761905,12.297619 16.2619048,12.8928571 16.3095238,13.452381 C16.3809524,14.1071429 16.3095238,14.8571429 15.8333333,15.3571429 C15.3928571,15.7738095 14.75,15.8333333 14.1666667,15.8214286 C13.5952381,15.797619 12.9761905,15.5833333 12.6785714,15.047619 C12.3928571,14.4642857 12.3214286,13.8095238 12.4642857,13.1785714 C12.5833333,12.5952381 13.0357143,12.1071429 13.6190476,11.9761905 Z" id="Shape"></path>
        </g>
    </g>
</svg>
